SVG_Azure_Grouped/Application/Event Grid Partner Registration.svg

<?xml version="1.0" encoding="UTF-8" standalone="no"?>
<!-- Generated by Microsoft Visio, SVG Export Event Grid Partner Registration.svg Page-1 -->

<svg
   xmlns:dc="http://purl.org/dc/elements/1.1/"
   xmlns:cc="http://creativecommons.org/ns#"
   xmlns:rdf="http://www.w3.org/1999/02/22-rdf-syntax-ns#"
   xmlns:svg="http://www.w3.org/2000/svg"
   xmlns="http://www.w3.org/2000/svg"
   xmlns:sodipodi="http://sodipodi.sourceforge.net/DTD/sodipodi-0.dtd"
   xmlns:inkscape="http://www.inkscape.org/namespaces/inkscape"
   width="0.78737056in"
   height="0.74804282in"
   viewBox="0 0 56.690589 53.859224"
   xml:space="preserve"
   class="st7"
   version="1.1"
   id="svg90"
   sodipodi:docname="Event Grid Partner Registration.svg"
   style="font-size:12px;overflow:visible;color-interpolation-filters:sRGB;fill:none;fill-rule:evenodd;stroke-linecap:square;stroke-miterlimit:3"
   inkscape:version="0.92.5 (2060ec1f9f, 2020-04-08)"><metadata
   id="metadata94"><rdf:RDF><cc:Work
       rdf:about=""><dc:format>image/svg+xml</dc:format><dc:type
         rdf:resource="http://purl.org/dc/dcmitype/StillImage" /></cc:Work></rdf:RDF></metadata><sodipodi:namedview
   pagecolor="#ffffff"
   bordercolor="#666666"
   borderopacity="1"
   objecttolerance="10"
   gridtolerance="10"
   guidetolerance="10"
   inkscape:pageopacity="0"
   inkscape:pageshadow="2"
   inkscape:window-width="640"
   inkscape:window-height="480"
   id="namedview92"
   showgrid="false"
   inkscape:zoom="1.4523234"
   inkscape:cx="37.795274"
   inkscape:cy="35.889694"
   inkscape:window-x="0"
   inkscape:window-y="0"
   inkscape:window-maximized="0"
   inkscape:current-layer="svg90" />
	<style
   type="text/css"
   id="style2">
	<![CDATA[
		.st1 {fill:url(#grad0-6);stroke:none;stroke-linecap:butt;stroke-width:34}
		.st2 {fill:#a3a3a3;stroke:none;stroke-linecap:butt;stroke-width:34}
		.st3 {fill:#a3a3a3;fill-opacity:0.5;stroke:none;stroke-linecap:butt;stroke-width:34}
		.st4 {fill:#949494;stroke:none;stroke-linecap:butt;stroke-width:34}
		.st5 {fill:url(#grad0-30);stroke:none;stroke-linecap:butt;stroke-width:34}
		.st6 {fill:#773adc;stroke:none;stroke-linecap:butt;stroke-width:34}
		.st7 {fill:none;fill-rule:evenodd;font-size:12px;overflow:visible;stroke-linecap:square;stroke-miterlimit:3}
	]]>
	</style>

	<defs
   id="Patterns_And_Gradients">
		<linearGradient
   id="grad0-6"
   x1="-2.7665284e-05"
   y1="71.285312"
   x2="48.990746"
   y2="71.285312"
   gradientTransform="scale(0.98692116,1.0132522)"
   gradientUnits="userSpaceOnUse">
			<stop
   offset="0"
   stop-color="#5ea0ef"
   stop-opacity="1"
   id="stop4" />
			<stop
   offset="1"
   stop-color="#0078d4"
   stop-opacity="1"
   id="stop6" />
		</linearGradient>
		<linearGradient
   id="grad0-30"
   x1="-0.022283363"
   y1="160.24372"
   x2="14.484898"
   y2="160.24372"
   gradientTransform="scale(1.4339124,0.69739267)"
   gradientUnits="userSpaceOnUse">
			<stop
   offset="0"
   stop-color="#0078d4"
   stop-opacity="1"
   id="stop9" />
			<stop
   offset="1"
   stop-color="#5ea0ef"
   stop-opacity="1"
   id="stop11" />
		</linearGradient>
	</defs>
	<g
   id="g88"
   transform="translate(-34.000234,-33.995117)">
		<title
   id="title15">Page-1</title>
		<g
   id="group14154-1"
   transform="translate(34,-34.0157)">
			<title
   id="title17">Event Grid Partner Registration.14154</title>
			<g
   id="group14155-2">
				<title
   id="title19">Sheet.14155</title>
				<g
   id="shape14156-3"
   transform="translate(0,-4.21918)">
					<title
   id="title21">Sheet.14156</title>
					<path
   d="M 48.34,87.13 H 34.05 V 72.37 l 12.28,-0.14 a 2.01631,2.06601 0 0 1 2.02,2.07 z M 31.52,87.27 V 72.23 H 16.96 l 0.27,15.04 z M 0.14,104.66 H 14.7 V 89.61 H 0 Z M 0,119.81 a 2.01631,2.06601 -180 0 0 2.02,2.06 H 14.7 V 106.98 H 0 Z M 0,74.31 0.14,87.13 H 14.7 V 72.23 H 2.02 A 2.01946,2.06924 -180 0 0 0,74.31 Z"
   class="st1"
   id="path23"
   inkscape:connector-curvature="0"
   style="fill:url(#grad0-6);stroke:none;stroke-width:34;stroke-linecap:butt" />
				</g>
				<g
   id="shape14157-7"
   transform="translate(18.8241,-25.7444)">
					<title
   id="title26">Sheet.14157</title>
					<path
   d="m 1.28,113.05 h 2.87 v 8.16 a 0.645849,0.661768 0 0 1 -0.645849,0.66177 L 0.63,121.87 A 0.630096,0.645628 0 0 1 -9.6e-5,121.20823 L 0,114.38 a 1.26019,1.29126 0 0 1 1.24,-1.33 z"
   class="st2"
   id="path28"
   inkscape:connector-curvature="0"
   style="fill:#a3a3a3;stroke:none;stroke-width:34;stroke-linecap:butt" />
				</g>
				<g
   id="shape14158-9"
   transform="translate(18.8241,-25.7444)">
					<title
   id="title31">Sheet.14158</title>
					<path
   d="m 1.28,113.05 h 2.87 v 8.16 a 0.645849,0.661768 0 0 1 -0.645849,0.66177 L 0.63,121.87 A 0.630096,0.645628 0 0 1 -9.6e-5,121.20823 L 0,114.38 a 1.26019,1.29126 0 0 1 1.24,-1.33 z"
   class="st3"
   id="path33"
   inkscape:connector-curvature="0"
   style="fill:#a3a3a3;fill-opacity:0.5;stroke:none;stroke-width:34;stroke-linecap:butt" />
				</g>
				<g
   id="shape14159-11"
   transform="translate(52.55,-25.7444)">
					<title
   id="title36">Sheet.14159</title>
					<path
   d="m 0,113.05 h 2.87 a 1.26019,1.29126 0 0 1 1.26,1.3 v 6.86 a 0.645849,0.661768 0 0 1 -0.630096,0.66177 L 0.66,121.87 A 0.645849,0.661768 0 0 1 0.014151,121.20823 L 0.02,113.05 Z"
   class="st2"
   id="path38"
   inkscape:connector-curvature="0"
   style="fill:#a3a3a3;stroke:none;stroke-width:34;stroke-linecap:butt" />
				</g>
				<g
   id="shape14160-13"
   transform="translate(52.55,-25.7444)">
					<title
   id="title41">Sheet.14160</title>
					<path
   d="m 0,113.05 h 2.87 a 1.26019,1.29126 0 0 1 1.26,1.3 v 6.86 a 0.645849,0.661768 0 0 1 -0.630096,0.66177 L 0.66,121.87 A 0.645849,0.661768 0 0 1 0.014151,121.20823 L 0.02,113.05 Z"
   class="st3"
   id="path43"
   inkscape:connector-curvature="0"
   style="fill:#a3a3a3;fill-opacity:0.5;stroke:none;stroke-width:34;stroke-linecap:butt" />
				</g>
				<g
   id="shape14161-15"
   transform="translate(18.8808,-30.4413)">
					<title
   id="title46">Sheet.14161</title>
					<path
   d="m 37.81,119.03 v 2.84 H 0 v -2.84 a 1.26019,1.29126 0 0 1 1.26,-1.29 h 35.29 a 1.26019,1.29126 0 0 1 1.26,1.29 z"
   class="st4"
   id="path48"
   inkscape:connector-curvature="0"
   style="fill:#949494;stroke:none;stroke-width:34;stroke-linecap:butt" />
				</g>
				<g
   id="shape14162-17"
   transform="translate(18.8073,-0.00645628)">
					<title
   id="title51">Sheet.14162</title>
					<path
   d="m 0.65,113 h 2.87 a 0.630096,0.645628 0 0 1 0.645849,0.64563 L 4.16,121.87 H 1.29 A 1.26019,1.29126 0 0 1 0,120.6 0.535582,0.548784 0 0 1 0,120.529 v -6.819 a 0.630096,0.645628 0 0 1 0.598591,-0.70696 z"
   class="st2"
   id="path53"
   inkscape:connector-curvature="0"
   style="fill:#a3a3a3;stroke:none;stroke-width:34;stroke-linecap:butt" />
				</g>
				<g
   id="shape14163-19"
   transform="translate(18.8073,-0.00645628)">
					<title
   id="title56">Sheet.14163</title>
					<path
   d="m 0.65,113 h 2.87 a 0.630096,0.645628 0 0 1 0.645849,0.64563 L 4.16,121.87 H 1.29 A 1.26019,1.29126 0 0 1 0,120.6 0.535582,0.548784 0 0 1 0,120.529 v -6.819 a 0.630096,0.645628 0 0 1 0.598591,-0.70696 z"
   class="st3"
   id="path58"
   inkscape:connector-curvature="0"
   style="fill:#a3a3a3;fill-opacity:0.5;stroke:none;stroke-width:34;stroke-linecap:butt" />
				</g>
				<g
   id="shape14164-21"
   transform="translate(52.55,-0.106529)">
					<title
   id="title61">Sheet.14164</title>
					<path
   d="m 0.65,113.1 h 2.86 a 0.630096,0.645628 0 0 1 0.630096,0.64563 L 4.14,120.58 a 1.26019,1.29126 0 0 1 -1.26,1.29 H 0 v -8.06 a 0.630096,0.645628 0 0 1 0.598591,-0.70696 z"
   class="st2"
   id="path63"
   inkscape:connector-curvature="0"
   style="fill:#a3a3a3;stroke:none;stroke-width:34;stroke-linecap:butt" />
				</g>
				<g
   id="shape14165-23"
   transform="translate(52.55,-0.106529)">
					<title
   id="title66">Sheet.14165</title>
					<path
   d="m 0.65,113.1 h 2.86 a 0.630096,0.645628 0 0 1 0.630096,0.64563 L 4.14,120.58 a 1.26019,1.29126 0 0 1 -1.26,1.29 H 0 v -8.06 a 0.630096,0.645628 0 0 1 0.598591,-0.70696 z"
   class="st3"
   id="path68"
   inkscape:connector-curvature="0"
   style="fill:#a3a3a3;fill-opacity:0.5;stroke:none;stroke-width:34;stroke-linecap:butt" />
				</g>
				<g
   id="shape14166-25"
   transform="translate(18.8115)">
					<title
   id="title71">Sheet.14166</title>
					<path
   d="m 0,120.58 v -2.85 h 37.81 v 2.85 a 1.26019,1.29126 0 0 1 -1.26,1.29 H 1.27 A 1.26019,1.29126 0 0 1 0,120.58 Z"
   class="st4"
   id="path73"
   inkscape:connector-curvature="0"
   style="fill:#949494;stroke:none;stroke-width:34;stroke-linecap:butt" />
				</g>
				<g
   id="shape14167-27"
   transform="translate(30.0311,-12.3476)">
					<title
   id="title76">Sheet.14167</title>
					<path
   d="m 15.97,121.87 a 0.223684,0.229198 -180 0 0 0.173276,-0.0839 L 20.64,117.2 a 0.497776,0.510046 -180 0 0 0,-0.68759 L 16.14,111.84 a 0.223684,0.229198 -180 0 0 -0.176427,-0.0872 0.248888,0.255023 -180 0 0 -0.138621,0.0452 0.233136,0.238882 -180 0 0 -0.08191,0.21952 L 15.74,114.89 a 0.223684,0.229198 0 0 1 -0.19533,0.25502 L 5.07,115.14 a 2.59285,2.65676 -180 0 0 -2.06,-1.04 2.46053,2.52118 -180 0 0 -0.26,0 2.72202,2.78911 -180 0 0 -0.26,5.57 2.32506,2.38237 -180 0 0 0.26,0 2.36286,2.4211 -180 0 0 0.26,0 2.67476,2.74069 -180 0 0 2.08,-1.06 h 10.45 a 0.226835,0.232426 0 0 1 0.223684,0.20337 L 15.76,121.65 a 0.220534,0.22597 -180 0 0 0.201631,0.21951 z"
   class="st5"
   id="path78"
   inkscape:connector-curvature="0"
   style="fill:url(#grad0-30);stroke:none;stroke-width:34;stroke-linecap:butt" />
				</g>
				<g
   id="shape14168-31"
   transform="translate(24.3244,-13.8875)">
					<title
   id="title81">Sheet.14168</title>
					<path
   d="m 13.19,121.86 a 5.78428,5.92686 0 1 1 -0.02,-6.89 h 3.15 a 8.5063,8.71597 -180 1 0 0,6.9 z"
   class="st6"
   id="path83"
   inkscape:connector-curvature="0"
   style="fill:#773adc;stroke:none;stroke-width:34;stroke-linecap:butt" />
				</g>
			</g>
		</g>
	</g>
</svg>

<?xml version="1.0" encoding="UTF-8" standalone="no"?>
<!DOCTYPE svg PUBLIC "-//W3C//DTD SVG 1.1//EN" "http://www.w3.org/Graphics/SVG/1.1/DTD/svg11.dtd">
<!-- Generated by Microsoft Visio, SVG Export Event Grid Partner Registration.svg Page-1 -->
<svg xmlns="http://www.w3.org/2000/svg" xmlns:xlink="http://www.w3.org/1999/xlink" xmlns:ev="http://www.w3.org/2001/xml-events"
		width="1.73185in" height="1.69269in" viewBox="0 0 124.693 121.874" xml:space="preserve" color-interpolation-filters="sRGB"
		class="st7">
	<style type="text/css">
	<![CDATA[
		.st1 {fill:url(#grad0-6);stroke:none;stroke-linecap:butt;stroke-width:34}
		.st2 {fill:#a3a3a3;stroke:none;stroke-linecap:butt;stroke-width:34}
		.st3 {fill:#a3a3a3;fill-opacity:0.5;stroke:none;stroke-linecap:butt;stroke-width:34}
		.st4 {fill:#949494;stroke:none;stroke-linecap:butt;stroke-width:34}
		.st5 {fill:url(#grad0-30);stroke:none;stroke-linecap:butt;stroke-width:34}
		.st6 {fill:#773adc;stroke:none;stroke-linecap:butt;stroke-width:34}
		.st7 {fill:none;fill-rule:evenodd;font-size:12px;overflow:visible;stroke-linecap:square;stroke-miterlimit:3}
	]]>
	</style>

	<defs id="Patterns_And_Gradients">
		<linearGradient id="grad0-6" x1="0" y1="0" x2="1" y2="0" gradientTransform="rotate(90 0.5 0.5)">
			<stop offset="0" stop-color="#5ea0ef" stop-opacity="1"/>
			<stop offset="1" stop-color="#0078d4" stop-opacity="1"/>
		</linearGradient>
		<linearGradient id="grad0-30" x1="0" y1="0" x2="1" y2="0" gradientTransform="rotate(-90 0.5 0.5)">
			<stop offset="0" stop-color="#0078d4" stop-opacity="1"/>
			<stop offset="1" stop-color="#5ea0ef" stop-opacity="1"/>
		</linearGradient>
	</defs>
	<g>
		<title>Page-1</title>
		<g id="group13807-1" transform="translate(34,-34.0157)">
			<title>Event Grid Partner Registration.13807</title>
			<g id="group13808-2">
				<title>Sheet.13808</title>
				<g id="shape13809-3" transform="translate(0,-4.21918)">
					<title>Sheet.13809</title>
					<path d="M48.34 87.13 L34.05 87.13 L34.05 72.37 L46.33 72.23 A2.01631 2.06601 0 0 1 48.35 74.3 L48.34 87.13 ZM31.52
								 87.27 L31.52 72.23 L16.96 72.23 L17.23 87.27 L31.52 87.27 ZM0.14 104.66 L14.7 104.66 L14.7 89.61
								 L0 89.61 L0.14 104.66 ZM0 119.81 A2.01631 2.06601 -180 0 0 2.02 121.87 L14.7 121.87 L14.7 106.98
								 L0 106.98 L0 119.81 ZM0 74.31 L0.14 87.13 L14.7 87.13 L14.7 72.23 L2.02 72.23 A2.01946 2.06924 -180
								 0 0 0 74.31 Z" class="st1"/>
				</g>
				<g id="shape13810-7" transform="translate(18.8241,-25.7444)">
					<title>Sheet.13810</title>
					<path d="M1.28 113.05 L4.15 113.05 L4.15 121.21 a0.645849 0.661768 0 0 1 -0.645849 0.661768 L0.63 121.87 a0.630096
								 0.645628 0 0 1 -0.630096 -0.661768 L0 114.38 A1.26019 1.29126 0 0 1 1.24 113.05 L1.28 113.05 Z"
							class="st2"/>
				</g>
				<g id="shape13811-9" transform="translate(18.8241,-25.7444)">
					<title>Sheet.13811</title>
					<path d="M1.28 113.05 L4.15 113.05 L4.15 121.21 a0.645849 0.661768 0 0 1 -0.645849 0.661768 L0.63 121.87 a0.630096
								 0.645628 0 0 1 -0.630096 -0.661768 L0 114.38 A1.26019 1.29126 0 0 1 1.24 113.05 L1.28 113.05 Z"
							class="st3"/>
				</g>
				<g id="shape13812-11" transform="translate(52.55,-25.7444)">
					<title>Sheet.13812</title>
					<path d="M0 113.05 L2.87 113.05 A1.26019 1.29126 0 0 1 4.13 114.35 L4.13 121.21 a0.645849 0.661768 0 0 1 -0.630096
								 0.661768 L0.66 121.87 a0.645849 0.661768 0 0 1 -0.645849 -0.661768 L0.02 113.05 L0 113.05 Z"
							class="st2"/>
				</g>
				<g id="shape13813-13" transform="translate(52.55,-25.7444)">
					<title>Sheet.13813</title>
					<path d="M0 113.05 L2.87 113.05 A1.26019 1.29126 0 0 1 4.13 114.35 L4.13 121.21 a0.645849 0.661768 0 0 1 -0.630096
								 0.661768 L0.66 121.87 a0.645849 0.661768 0 0 1 -0.645849 -0.661768 L0.02 113.05 L0 113.05 Z"
							class="st3"/>
				</g>
				<g id="shape13814-15" transform="translate(18.8808,-30.4413)">
					<title>Sheet.13814</title>
					<path d="M37.81 119.03 L37.81 121.87 L0 121.87 L0 119.03 A1.26019 1.29126 0 0 1 1.26 117.74 L36.55 117.74 A1.26019
								 1.29126 0 0 1 37.81 119.03 Z" class="st4"/>
				</g>
				<g id="shape13815-17" transform="translate(18.8073,-0.00645628)">
					<title>Sheet.13815</title>
					<path d="M0.65 113 L3.52 113 a0.630096 0.645628 0 0 1 0.645849 0.645628 L4.16 121.87 L1.29 121.87 A1.26019 1.29126
								 0 0 1 0 120.6 a0.535582 0.548784 0 0 1 -6.66134E-16 -0.0710191 L0 113.71 a0.630096 0.645628 0 0
								 1 0.598591 -0.706962 L0.65 113 Z" class="st2"/>
				</g>
				<g id="shape13816-19" transform="translate(18.8073,-0.00645628)">
					<title>Sheet.13816</title>
					<path d="M0.65 113 L3.52 113 a0.630096 0.645628 0 0 1 0.645849 0.645628 L4.16 121.87 L1.29 121.87 A1.26019 1.29126
								 0 0 1 0 120.6 a0.535582 0.548784 0 0 1 -6.66134E-16 -0.0710191 L0 113.71 a0.630096 0.645628 0 0
								 1 0.598591 -0.706962 L0.65 113 Z" class="st3"/>
				</g>
				<g id="shape13817-21" transform="translate(52.55,-0.106529)">
					<title>Sheet.13817</title>
					<path d="M0.65 113.1 L3.51 113.1 a0.630096 0.645628 0 0 1 0.630096 0.645628 L4.14 120.58 A1.26019 1.29126 0 0
								 1 2.88 121.87 L0 121.87 L0 113.81 a0.630096 0.645628 0 0 1 0.598591 -0.706962 L0.65 113.1 Z"
							class="st2"/>
				</g>
				<g id="shape13818-23" transform="translate(52.55,-0.106529)">
					<title>Sheet.13818</title>
					<path d="M0.65 113.1 L3.51 113.1 a0.630096 0.645628 0 0 1 0.630096 0.645628 L4.14 120.58 A1.26019 1.29126 0 0
								 1 2.88 121.87 L0 121.87 L0 113.81 a0.630096 0.645628 0 0 1 0.598591 -0.706962 L0.65 113.1 Z"
							class="st3"/>
				</g>
				<g id="shape13819-25" transform="translate(18.8115,1.42109E-14)">
					<title>Sheet.13819</title>
					<path d="M0 120.58 L0 117.73 L37.81 117.73 L37.81 120.58 A1.26019 1.29126 0 0 1 36.55 121.87 L1.27 121.87 A1.26019
								 1.29126 0 0 1 -0 120.58 Z" class="st4"/>
				</g>
				<g id="shape13820-27" transform="translate(30.0311,-12.3476)">
					<title>Sheet.13820</title>
					<path d="M15.97 121.87 a0.223684 0.229198 -180 0 0 0.173276 -0.0839316 L20.64 117.2 a0.497776 0.510046 -180 0
								 0 1.77636E-14 -0.687594 L16.14 111.84 a0.223684 0.229198 -180 0 0 -0.176427 -0.0871597 a0.248888
								 0.255023 -180 0 0 -0.138621 0.0451939 a0.233136 0.238882 -180 0 0 -0.0819125 0.219513 L15.74 114.89
								 a0.223684 0.229198 0 0 1 -0.19533 0.255023 L5.07 115.14 A2.59285 2.65676 -180 0 0 3.01 114.1 A2.46053
								 2.52118 -180 0 0 2.75 114.1 A2.72202 2.78911 -180 0 0 2.49 119.67 A2.32506 2.38237 -180 0 0 2.75
								 119.67 A2.36286 2.4211 -180 0 0 3.01 119.67 A2.67476 2.74069 -180 0 0 5.09 118.61 L15.54 118.61
								 a0.226835 0.232426 0 0 1 0.223684 0.203373 L15.76 121.65 a0.220534 0.22597 -180 0 0 0.201631 0.219513
								 Z" class="st5"/>
				</g>
				<g id="shape13821-31" transform="translate(24.3244,-13.8875)">
					<title>Sheet.13821</title>
					<path d="M13.19 121.86 A5.78428 5.92686 0 1 1 13.17 114.97 L16.32 114.97 A8.5063 8.71597 -180 1 0 16.32 121.87
								 L13.19 121.86 Z" class="st6"/>
				</g>
			</g>
		</g>
	</g>
</svg>
